X:1
T:Minuet. SenH.133, A
T:Minuet. SenH.133, A
T:in Hand C
C:in Hand C
L:1/8
Q:1/4=100
M:3/4
K:C
V:1 treble 
V:1
"^no key sig in ms" d'4 c'2 | d'2 c'b a2 | b2 a2 g2 | f2 ef d2 | f2 afdf | e2 gece | d2 fefg | %7
 agabc'a | a6 || d'c'd'afa | b6 | e'd'bc'd'e' | (d'c')(bc') a2 | d'c'd'afa | babc'd'a | %15
 (gf)(ed)A^c | d6 |] %17

